Font-Source/Egyptian2/svg-my/13040.svg

<?xml version="1.0" encoding="UTF-8" standalone="no"?>
<svg
   width="1000"
   height="800"
   version="1.1"
   id="svg1"
   sodipodi:docname="13040.svg"
   inkscape:version="1.4.2 (f4327f4, 2025-05-13)"
   xmlns:inkscape="http://www.inkscape.org/namespaces/inkscape"
   xmlns:sodipodi="http://sodipodi.sourceforge.net/DTD/sodipodi-0.dtd"
   xmlns="http://www.w3.org/2000/svg"
   xmlns:svg="http://www.w3.org/2000/svg">
  <defs
     id="defs1" />
  <sodipodi:namedview
     id="namedview1"
     pagecolor="#ffffff"
     bordercolor="#666666"
     borderopacity="1.0"
     inkscape:showpageshadow="2"
     inkscape:pageopacity="0.0"
     inkscape:pagecheckerboard="0"
     inkscape:deskcolor="#d1d1d1"
     showguides="true"
     inkscape:zoom="0.66733202"
     inkscape:cx="164.08624"
     inkscape:cy="192.55782"
     inkscape:window-width="1680"
     inkscape:window-height="998"
     inkscape:window-x="-8"
     inkscape:window-y="-8"
     inkscape:window-maximized="1"
     inkscape:current-layer="svg1">
    <sodipodi:guide
       position="50.405901,512.86453"
       orientation="1,0"
       id="guide3"
       inkscape:locked="false" />
    <sodipodi:guide
       position="985.30367,519.51073"
       orientation="0,-1"
       id="guide4"
       inkscape:locked="false" />
    <sodipodi:guide
       position="149.54492,474.0957"
       orientation="0,-1"
       id="guide5"
       inkscape:locked="false" />
    <sodipodi:guide
       position="985.30367,519.51073"
       orientation="1,0"
       id="guide6"
       inkscape:locked="false" />
  </sodipodi:namedview>
  <path
     id="path1"
     style="fill:#000000;stroke:none;stroke-width:1"
     d="m 50.40625,280.49023 v 69.78321 L 54.835938,479.875 c -2.215399,25.8463 -0.923075,43.20091 3.876953,52.0625 4.800028,8.86159 7.201171,35.81491 7.201171,80.86133 0,45.04641 -8.677301,73.66297 -26.03125,85.84765 -23.261673,15.13856 -34.8925776,32.12225 -34.8925776,50.95313 v 19.93945 H 23.267578 V 800 h 69.785156 v -30.46094 h 13.291016 c 12.18469,-16.61548 16.61607,-31.38544 13.29297,-44.30859 -3.69233,-13.29239 1.66241,-22.15319 16.0625,-26.58399 14.40008,-4.43079 16.98473,-14.95483 7.7539,-31.57031 -8.86159,-16.61548 -12.92401,-35.44591 -12.18554,-56.49219 0.73846,-21.04627 4.8009,-43.38471 12.18554,-67.01562 7.7539,-23.63091 10.15309,-78.64638 7.19922,-165.04688 0,-14.76932 4.06242,-24.18648 12.18555,-28.24804 H 830.7793 c -27.69247,115.20067 -4.79962,192.18562 68.67773,230.95508 3.32309,72.36965 -6.27757,114.83279 -28.80078,127.38671 -22.52321,12.92316 -33.78516,27.69115 -33.78516,44.30665 v 18.83203 h 22.1543 V 800 h 79.20117 v -28.24609 h 16.61524 c 11.44622,-21.78474 10.33935,-40.06272 -3.32227,-54.83203 0,-12.1847 5.72175,-18.2754 17.16797,-18.2754 11.07699,0 12.73826,-10.89299 4.98438,-32.67773 -8.12312,-21.78474 -7.93767,-41.90749 0.55468,-60.36914 8.12313,-18.46165 15.32265,-30.09255 21.59961,-34.89258 6.64623,-4.80003 5.35383,-11.6306 -3.87695,-20.49219 -32.86173,-20.30781 -49.29102,-47.07763 -49.29102,-80.30859 0,-32.86173 14.2136,-62.58515 42.64453,-89.16992 V 252.86526 l -42.98249,14.03973 -37.68447,-14.03973 -308.60562,0 -85.03807,21.06634 -68.18401,-21.06634 -86.16401,0 -3.74627,49.35328 -24.78578,9.36299 -223.38698,-17.17513 z m 902.2207,-7.13278 v 105.16403 c -24.7386,26.21554 -37.10742,57.22933 -37.10742,93.04493 0,35.8156 16.9837,67.20225 50.95313,94.15625 -20.30781,42.09255 -26.03151,73.29179 -17.16993,93.59961 8.8616,20.3078 5.53904,26.95487 -9.96875,19.93945 -2.21539,8.49235 -5.9069,16.79875 -11.07617,24.92187 -4.80002,8.49236 -2.76979,17.16966 6.0918,26.03125 8.49235,8.86159 5.90771,16.43006 -7.75391,22.70704 h -25.47656 l 6.64648,-16.06055 h -13.84765 l -7.75391,16.06055 h -22.70703 c 0,-12.92315 10.15313,-23.81419 30.46094,-32.67579 20.30781,-9.23082 31.56976,-60.36931 33.78515,-153.41601 C 849.79499,538.39914 828.74886,458.08969 864.56445,325.9043 H 149.54492 c -14.40654,0 -22.12115,14.22338 -21.59961,42.64648 1.69398,92.31927 -1.29261,158.9546 -10.52343,199.93945 -9.60006,40.98486 -10.70888,69.23246 -3.32422,84.74024 7.75389,15.13855 5.72365,27.13841 -6.0918,36 -11.446224,8.49236 -15.137735,17.90757 -11.076172,28.24609 4.061562,9.9693 0.553547,20.67683 -10.523438,32.12305 H 60.375 l 7.753906,-18.27734 H 52.621094 l -11.63086,18.27734 h -8.861328 c 0,-11.44622 9.784171,-23.81504 29.353516,-37.10742 19.569345,-12.92316 29.53897,-43.7554 29.908203,-92.49414 0.369233,-49.10798 -2.029958,-78.277 -7.199219,-87.50782 -5.538494,-9.23082 -7.199772,-26.39997 -4.984375,-51.50781 L 75.882812,369.6582 c 0.738467,-43.56948 9.046811,-66.09142 24.923828,-67.56836 l 241.96273,2.92197 18.29027,-30.88529 z"
     sodipodi:nodetypes="cccsscscccccccscsccccccscccccccsccccsccccccccccccccscsccccccccccccssccccccccccccccccccc" />
  <path
     style="fill:#000000;stroke:none;stroke-width:1"
     d="m 366.43647,276.14004 c 25.39658,0 38.1063,-2.0156 64.30913,-6.04682 53.61502,21.36539 96.14421,26.20283 127.58762,14.51235 31.44339,-11.28738 62.32429,-16.12481 189.30723,-14.51235 126.57981,1.61249 172.76083,6.04682 192.91685,13.30297 20.15601,7.25617 35.07148,0.40314 44.74637,-20.55913 V 84.01133 c 0,-16.14496 -13.67114,-11.935112 -20.47927,-2.428941 -30.79715,43.001871 -49.05901,80.273021 -55.10582,98.413431 -6.0468,18.14042 -62.88677,15.7217 -170.51993,-7.25617 -42.85662,-9.18356 -195.24398,-59.36449 -349.49035,-60.51405 -51.73901,-0.3856 -93.71741,4.74552 -115.1833,18.79108 -13.30297,4.83745 -29.02466,13.50454 -47.16508,26.00128 -22.17164,10.48113 -39.70737,9.67487 -52.60722,-2.41872 v -16.32639 c 58.61669,-9.76944 122.61894,-34.74973 131.8272,-74.871305 2.49412,-10.86723 1.59439,-24.568321 -13.61824,-24.568321 -10.89724,0 -20.94735,7.772164 -11.44348,23.575431 -18.82059,41.451355 -101.52491,51.072295 -112.81228,48.653565 -4.03121,-5.64368 -8.66709,-8.0624 -13.90765,-7.25617 -5.64369,1.61249 -9.07022,0.60469 -10.27958,-3.02339 -1.20936,-3.628088 -4.23276,-3.426535 -9.07021,0.60468 -0.80625,-2.418726 -2.01561,-3.829651 -3.62809,-4.232768 -1.61248,-0.403127 -2.41871,1.007798 -2.41871,4.232768 -4.43433,2.41871 -7.05461,0.60468 -7.86085,-5.44213 -0.80625,-6.046809 -4.0312,-8.667086 -9.6749,-7.860852 -9.67489,3.224968 -18.54353,8.062415 -26.605945,14.512342 -7.659288,6.44993 -16.729491,10.48113 -27.21062,12.09361 C 19.349779,122.3496 2.3368997e-7,148.1493 2.3368997e-7,192.08943 c 0,43.537 11.69049476631003,75.38352 35.07148076631003,95.53954 9.271264,7.99247 21.268089,14.43201 35.990475,19.31861 22.405648,7.4368 51.123984,11.27684 86.155014,11.52011 58.45246,0.40311 128.19229,0.60468 209.2195,0.60468 V 297.6062 Z M 229.77865,188.46135 c 9.27176,-9.67489 22.57473,-18.94666 39.90891,-27.81532 25.34328,-14.89244 67.22791,-21.00277 117.98276,-21.25854 163.49085,3.37623 235.42377,39.97527 395.67003,69.633 91.91144,16.93105 140.2859,13.30297 145.12335,-10.88425 5.24056,-24.18723 16.32637,-47.76977 33.25742,-70.74764 v 93.12082 c 0.80625,32.24964 -7.45772,44.5448 -24.7919,36.88552 -17.73731,-7.25616 -65.32925,-11.48894 -197.14962,-12.69829 -131.41727,-1.20937 -161.89506,3.22497 -188.09788,13.30298 -26.20282,10.48113 -65.70862,5.84524 -118.5174,-13.90767 -33.45899,4.83744 -54.23113,6.65149 -88.49636,5.44212 -34.66835,-1.20936 -61.47587,-1.81403 -80.42252,-1.81403 -18.54355,0 -31.64495,-4.83746 -39.30424,-14.51234 -7.25617,-10.07801 -5.64369,-24.99346 4.83745,-44.74636 z m 114.88931,103.40039 c -66.51487,0.80624 -122.75017,1.41091 -168.70589,1.81403 C 130.00633,294.0789 93.120816,288.63678 65.305506,277.3494 37.490195,265.65891 23.582545,235.62643 23.582545,187.25197 c 0,-20.96225 6.449926,-35.27302 19.349778,-42.93231 3.224968,25.39659 12.698299,41.5214 28.419992,48.37445 -11.287374,1.61248 -17.334182,7.86085 -18.140417,18.7451 -0.403117,11.28737 5.442128,16.93105 17.535736,16.93105 11.69049,0 22.171619,-4.23275 31.443386,-12.69828 10.48113,0.80624 15.72169,-0.80625 15.72169,-4.83744 32.24964,3.22496 56.03375,23.78411 71.35234,61.67741 37.08707,0.80625 88.88804,0.80625 155.40291,0 z M 159.63569,164.27412 c -4.83744,12.89985 -14.91546,22.37318 -30.23403,28.41999 -7.65929,-0.80624 -17.13262,-1.61248 -28.41999,-2.41872 l -4.837449,6.04681 c 7.256169,-0.80625 11.287369,0.80623 12.093619,4.83743 0.80624,4.03121 -2.41873,5.6437 -9.674896,4.83745 -8.465532,6.44993 -15.721693,9.87646 -21.768501,10.27959 -6.046809,0.4031 -9.070214,-2.01562 -9.070214,-7.25618 0,-5.24057 6.449926,-8.66709 19.349779,-10.27957 L 81.027209,188.46135 C 59.661824,167.49909 52.405654,149.15711 59.258707,133.4354 l 4.837437,-2.41872 c -4.031203,6.44994 -2.418723,15.92327 4.837447,28.42 3.224968,5.64368 5.643692,11.28737 7.256171,16.93106 l 4.837447,-1.20936 c -2.418724,-6.44994 -5.240565,-13.70611 -8.465533,-21.76851 -3.224968,-7.65929 -3.829649,-14.51234 -1.814042,-20.55915 2.015606,-6.0468 7.457724,-12.0936 16.326374,-18.14041 8.465532,-7.25617 16.326382,-11.69049 23.582552,-13.30297 4.0312,0 6.0468,3.62807 6.0468,10.88424 2.41872,5.24057 7.05461,5.6437 13.90766,1.20937 l 3.62808,17.53573 c 3.22496,2.41872 5.24056,1.61249 6.04681,-2.41871 l 6.0468,-11.48894 c 4.83744,-0.80624 8.86864,0.20156 12.09361,3.02341 3.62809,2.41872 4.83745,9.47333 3.62809,21.16382 -1.61248,12.09361 -2.41872,19.75289 -2.41872,22.97786 z m 6.65148,7.25616 c 16.93107,8.06241 32.04807,10.88426 45.35105,8.46554 -14.10921,13.30297 -16.93105,37.08708 -8.46553,71.35231 -17.33417,-28.62155 -38.69956,-46.96353 -64.09615,-55.02593 12.09361,-5.24057 21.16382,-13.50454 27.21063,-24.79192 z m -80.422524,-45.35104 -4.837437,1.20936 c 0.806234,1.61248 0,3.62808 -2.418724,6.0468 -2.418723,2.41873 -2.821841,6.44994 -1.209362,12.09362 0,4.83745 2.821841,11.48893 8.465523,19.95446 l 1.209362,8.46553 h 5.442128 v -9.67489 c 4.837447,-16.52794 2.620287,-27.61375 -6.65149,-33.25744 z"
     id="path1-9"
     sodipodi:nodetypes="ccccscssscsccccsscccscscscccsssccccccscccccccccscccscscccscccccccccscssccccccccscccccccccccccccccsccccccc" />
</svg>

<?xml version="1.0" encoding="UTF-8" standalone="no"?>
<svg
   width="1000"
   height="800"
   version="1.1"
   id="svg1"
   sodipodi:docname="13040.svg"
   inkscape:version="1.4.2 (f4327f4, 2025-05-13)"
   xmlns:inkscape="http://www.inkscape.org/namespaces/inkscape"
   xmlns:sodipodi="http://sodipodi.sourceforge.net/DTD/sodipodi-0.dtd"
   xmlns="http://www.w3.org/2000/svg"
   xmlns:svg="http://www.w3.org/2000/svg">
  <defs
     id="defs1" />
  <sodipodi:namedview
     id="namedview1"
     pagecolor="#ffffff"
     bordercolor="#666666"
     borderopacity="1.0"
     inkscape:showpageshadow="2"
     inkscape:pageopacity="0.0"
     inkscape:pagecheckerboard="0"
     inkscape:deskcolor="#d1d1d1"
     showguides="true"
     inkscape:zoom="3.775"
     inkscape:cx="823.97352"
     inkscape:cy="307.94702"
     inkscape:window-width="1680"
     inkscape:window-height="998"
     inkscape:window-x="-8"
     inkscape:window-y="-8"
     inkscape:window-maximized="1"
     inkscape:current-layer="svg1">
    <sodipodi:guide
       position="50.405901,512.86453"
       orientation="1,0"
       id="guide3"
       inkscape:locked="false" />
    <sodipodi:guide
       position="985.30367,519.51073"
       orientation="0,-1"
       id="guide4"
       inkscape:locked="false" />
    <sodipodi:guide
       position="149.54492,474.0957"
       orientation="0,-1"
       id="guide5"
       inkscape:locked="false" />
    <sodipodi:guide
       position="985.30367,519.51073"
       orientation="1,0"
       id="guide6"
       inkscape:locked="false" />
  </sodipodi:namedview>
  <path
     id="path1"
     style="fill:#000000;stroke:none;stroke-width:1"
     d="M 292.96094 38.833984 C 282.0637 38.833984 272.01371 46.604936 281.51758 62.408203 C 262.69699 103.85956 179.99245 113.48123 168.70508 111.0625 C 164.67387 105.41882 160.03939 103.00041 154.79883 103.80664 C 149.15514 105.41913 145.72889 104.41128 144.51953 100.7832 C 143.31017 97.155124 140.28667 97.355501 135.44922 101.38672 C 134.64297 98.96799 133.43279 97.557414 131.82031 97.154297 C 130.20783 96.75117 129.40234 98.161746 129.40234 101.38672 C 124.96801 103.80543 122.34726 101.99212 121.54102 95.945312 C 120.73477 89.898505 117.50893 87.27775 111.86523 88.083984 C 102.19034 91.308952 93.322181 96.147717 85.259766 102.59766 C 77.600478 109.04759 68.529957 113.07697 58.048828 114.68945 C 19.349262 122.34874 -9.4739031e-15 148.14971 0 192.08984 C 0 235.62684 11.69128 267.47289 35.072266 287.62891 C 39.539285 291.47979 44.673785 294.95021 50.40625 298.08008 L 50.40625 350.27344 L 54.835938 479.875 C 52.620539 505.7213 53.912863 523.07591 58.712891 531.9375 C 63.512919 540.79909 65.914062 567.75241 65.914062 612.79883 C 65.914062 657.84524 57.236762 686.4618 39.882812 698.64648 C 16.62114 713.78504 4.9902344 730.76873 4.9902344 749.59961 L 4.9902344 769.53906 L 23.267578 769.53906 L 23.267578 800 L 93.052734 800 L 93.052734 769.53906 L 106.34375 769.53906 C 118.52844 752.92358 122.95982 738.15362 119.63672 725.23047 C 115.94439 711.93808 121.29913 703.07728 135.69922 698.64648 C 150.0993 694.21569 152.68395 683.69165 143.45312 667.07617 C 134.59153 650.46069 130.52911 631.63026 131.26758 610.58398 C 132.00604 589.53771 136.0685 567.19927 143.45312 543.56836 C 151.20702 519.93745 153.60621 464.92198 150.65234 378.52148 C 150.65234 363.75216 154.71476 354.335 162.83789 350.27344 L 830.7793 350.27344 C 803.08683 465.47411 825.97968 542.45906 899.45703 581.22852 C 902.78012 653.59817 893.17946 696.06131 870.65625 708.61523 C 848.13304 721.53839 836.87109 736.30638 836.87109 752.92188 L 836.87109 771.75391 L 859.02539 771.75391 L 859.02539 800 L 938.22656 800 L 938.22656 771.75391 L 954.8418 771.75391 C 966.28802 749.96917 965.18115 731.69119 951.51953 716.92188 C 951.51953 704.73717 957.24128 698.64648 968.6875 698.64648 C 979.76449 698.64648 981.42574 687.75349 973.67188 665.96875 C 965.54876 644.18401 965.73421 624.06126 974.22656 605.59961 C 982.34969 587.13796 989.54921 575.50706 995.82617 570.70703 C 1002.4724 565.907 1001.18 559.07643 991.94922 550.21484 C 959.08749 529.90703 942.6582 503.13721 942.6582 469.90625 C 942.6582 437.04452 956.8718 407.3211 985.30273 380.73633 L 985.30273 262.83984 L 985.30273 262.83789 L 985.30273 252.86523 L 985.30273 84.011719 C 985.30273 67.866759 971.63235 72.07586 964.82422 81.582031 C 934.02707 124.5839 915.76556 161.85568 909.71875 179.99609 C 903.67195 198.13651 846.83238 195.7181 739.19922 172.74023 C 696.3426 163.55667 543.95535 113.37612 389.70898 112.22656 C 337.96997 111.84096 295.99128 116.97202 274.52539 131.01758 C 261.22242 135.85503 245.49977 144.52084 227.35938 157.01758 C 205.18774 167.49871 187.6518 166.6932 174.75195 154.59961 L 174.75195 138.27344 C 233.36864 128.504 297.37182 103.52392 306.58008 63.402344 C 309.0742 52.535114 308.17357 38.833984 292.96094 38.833984 z M 110.65625 101.38672 C 114.68745 101.38672 116.70314 105.01531 116.70312 112.27148 C 119.12184 117.51205 123.75828 117.9148 130.61133 113.48047 L 134.23828 131.01758 C 137.46324 133.4363 139.47891 132.62886 140.28516 128.59766 L 146.33203 117.10938 C 151.16947 116.30312 155.20081 117.31096 158.42578 120.13281 C 162.05387 122.55153 163.26405 129.60638 162.05469 141.29688 C 160.44221 153.39049 159.63477 161.04847 159.63477 164.27344 C 154.79733 177.17329 144.72091 186.64655 129.40234 192.69336 C 121.74305 191.88712 112.26979 191.08163 100.98242 190.27539 L 96.144531 196.32227 C 103.4007 195.51602 107.43203 197.12896 108.23828 201.16016 C 109.04452 205.19137 105.81867 206.8043 98.5625 205.99805 C 90.096968 212.44798 82.84173 215.87421 76.794922 216.27734 C 70.748113 216.68044 67.724609 214.26009 67.724609 209.01953 C 67.724609 203.77896 74.174366 200.35271 87.074219 198.74023 L 81.027344 188.46094 C 59.661959 167.49868 52.404763 149.15726 59.257812 133.43555 L 64.095703 131.01758 C 60.0645 137.46752 61.677424 146.94077 68.933594 159.4375 C 72.158562 165.08118 74.576974 170.7235 76.189453 176.36719 L 81.027344 175.1582 C 78.60862 168.70826 75.787468 161.45303 72.5625 153.39062 C 69.337532 145.73137 68.73244 138.87689 70.748047 132.83008 C 72.763653 126.78328 78.205569 120.73626 87.074219 114.68945 C 95.539751 107.43328 103.40008 102.9992 110.65625 101.38672 z M 85.865234 126.17969 L 81.027344 127.38867 C 81.833578 129.00115 81.028099 131.01683 78.609375 133.43555 C 76.190652 135.85428 75.785956 139.88562 77.398438 145.5293 C 77.398438 150.36675 80.221552 157.01881 85.865234 165.48438 L 87.074219 173.94922 L 92.515625 173.94922 L 92.515625 164.27344 C 97.353072 147.7455 95.137011 136.66127 85.865234 131.01758 L 85.865234 126.17969 z M 961.7207 127.38867 L 961.7207 220.50977 C 962.52695 252.75941 954.26387 265.05381 936.92969 257.39453 C 919.19238 250.13837 871.59967 245.90662 739.7793 244.69727 C 608.36203 243.4879 577.88446 247.92199 551.68164 258 C 525.47882 268.48113 485.97284 263.84471 433.16406 244.0918 C 399.70507 248.92924 378.9332 250.74257 344.66797 249.5332 C 309.99962 248.32384 283.19274 247.7207 264.24609 247.7207 C 245.70254 247.7207 232.6007 242.88191 224.94141 233.20703 C 217.68524 223.12902 219.29816 208.21384 229.7793 188.46094 C 239.05106 178.78605 252.35332 169.51514 269.6875 160.64648 C 295.03078 145.75404 336.91507 139.64249 387.66992 139.38672 C 551.16077 142.76295 623.09358 179.3618 783.33984 209.01953 C 875.25128 225.95058 923.62544 222.32394 928.46289 198.13672 C 933.70345 173.94949 944.78965 150.36654 961.7207 127.38867 z M 42.931641 144.32031 C 46.156609 169.7169 55.62987 185.84031 71.351562 192.69336 C 60.064189 194.30584 54.017173 200.5552 53.210938 211.43945 C 52.80782 222.72682 58.654439 228.37109 70.748047 228.37109 C 82.438537 228.37109 92.919627 224.13737 102.19141 215.67188 C 112.67254 216.47812 117.91211 214.86517 117.91211 210.83398 C 150.16175 214.05894 173.94706 234.61842 189.26562 272.51172 C 226.35271 273.31797 278.1531 273.31797 344.66797 272.51172 L 344.66797 291.86133 C 278.1531 292.66757 221.91861 293.27266 175.96289 293.67578 C 130.00715 294.07891 93.119997 288.63699 65.304688 277.34961 C 37.489377 265.65912 23.582031 235.62641 23.582031 187.25195 C 23.582031 166.2897 30.031789 151.9796 42.931641 144.32031 z M 166.28711 171.53125 C 183.21818 179.59366 198.33569 182.41481 211.63867 179.99609 C 197.52946 193.29906 194.70632 217.08243 203.17188 251.34766 C 185.83767 222.72611 164.47276 204.38467 139.07617 196.32227 C 151.16978 191.0817 160.2403 182.81863 166.28711 171.53125 z M 865.98438 273.4707 C 907.50793 275.78874 928.61437 279.09728 940.55664 283.39648 C 944.8136 284.92899 948.83751 285.83166 952.62695 286.10547 L 952.62695 378.52148 C 927.88835 404.73702 915.51953 435.75081 915.51953 471.56641 C 915.51953 507.38201 932.50323 538.76866 966.47266 565.72266 C 946.16485 607.81521 940.44115 639.01445 949.30273 659.32227 C 958.16433 679.63007 954.84177 686.27714 939.33398 679.26172 C 937.11859 687.75407 933.42708 696.06047 928.25781 704.18359 C 923.45779 712.67595 925.48802 721.35325 934.34961 730.21484 C 942.84196 739.07643 940.25732 746.64489 926.5957 752.92188 L 901.11914 752.92188 L 907.76562 736.86133 L 893.91797 736.86133 L 886.16406 752.92188 L 863.45703 752.92188 C 863.45703 739.99873 873.61016 729.10769 893.91797 720.24609 C 914.22578 711.01527 925.48773 659.87678 927.70312 566.83008 C 849.79503 538.39914 828.74886 458.08969 864.56445 325.9043 L 149.54492 325.9043 C 135.13838 325.9043 127.42377 340.12768 127.94531 368.55078 C 129.63929 460.87005 126.6527 527.50538 117.42188 568.49023 C 107.82182 609.47509 106.713 637.72269 114.09766 653.23047 C 121.85155 668.36902 119.82131 680.36888 108.00586 689.23047 C 96.559632 697.72283 92.868125 707.13804 96.929688 717.47656 C 100.99125 727.44586 97.483235 738.15339 86.40625 749.59961 L 60.375 749.59961 L 68.128906 731.32227 L 52.621094 731.32227 L 40.990234 749.59961 L 32.128906 749.59961 C 32.128906 738.15339 41.913077 725.78457 61.482422 712.49219 C 81.051767 699.56903 91.021392 668.73679 91.390625 619.99805 C 91.759858 570.89007 89.360667 541.72105 84.191406 532.49023 C 78.652912 523.25941 76.991634 506.09026 79.207031 480.98242 L 75.882812 369.6582 C 76.362899 341.33329 80.041475 321.90361 86.919922 311.36914 C 106.53145 315.91203 129.96419 318.27754 157.2168 318.4668 C 215.66926 318.86991 285.40834 319.07227 366.43555 319.07227 L 366.43555 297.60547 L 366.43555 276.14062 C 381.28879 276.14062 391.80343 275.45115 403.21484 274.07227 L 403.2168 274.07227 L 440.99023 274.02344 C 489.80532 292.01347 528.92037 295.54128 558.33398 284.60547 C 571.51705 279.87308 584.59961 276.27537 604.70898 273.81055 C 604.71498 273.8098 604.73443 273.81129 604.74023 273.81055 L 865.98438 273.4707 z " />
</svg>
